X: 663
P: Longways for as many as will
M: C|
L: 1/8
K: F
V: 1
eg |\
f2 c4 Bc | A2 F4 AB | G2F2 EFGE | E2 C4 eg |\
f2 c4 Bc | A2 F4 c2 | defd efge | f2 F4 :|
e2 |\
fcAc F2f2 | ga b4 f2 | agfe defd | efde c2A2 |\
V: 2 clef=bass middle=d
c2 |\
f4 d2e2 | f4 A2F2 | B4 G4 | c4 c4 |\
f4 d2e2 |f4 A4 | B4 c4 | f4 F2 |]
c2 |\
f4 A2F2 | c4 d2e2 | f4 =B4 | c2d2 e2f2 |\
g4 e4 | f4 d4 | c4 c4 | f6 |]

